X: 711
T: Zhong yangyan
L: 1/8
M: 2/4
K: A
B e f e/ e/ [I:setbarnb 1]| 
F> AB2 | 
B e f e/ e/ | 
A> F E/ F/ E | 
A A B e | 
eA2F | 
E F E/ F/ C/ C/ | 
B,4 |]

@@@ Tune index: 9585
